src/actions/32/mail-tagged.svg

<svg version="1.1" viewBox="0 0 32 32" xmlns="http://www.w3.org/2000/svg">
 <defs>
  <style id="current-color-scheme" type="text/css">.ColorScheme-Text {
        color:#363636;
      }</style>
 </defs>
 <path class="ColorScheme-Text" d="m20 17v5l5.3906 4.9746 4.584-4.584-4.9746-5.3906zm2.8906 1.6406c0.69 0 1.25 0.56 1.25 1.25s-0.56 1.25-1.25 1.25-1.25-0.56-1.25-1.25 0.56-1.25 1.25-1.25z" fill="currentColor"/>
 <path class="ColorScheme-Text" d="m6 5c-2.1263 0-3.8499 1.6437-3.9863 3.7344l-0.013672-0.011719v14.557l0.013672-0.01172c0.13738 2.0897 1.8607 3.7324 3.9863 3.7324h15v-1h-15c-1.662 0-3-1.338-3-3v-0.49609l7.5801-5.8809 3.6035 2.7949c0.99892 0.7749 2.6339 0.7749 3.6328 0l1.1836-0.91797v-1.248l-1.9883 1.543c-0.56803 0.44064-1.4574 0.44255-2.0254 2e-3l-11.986-9.2989v-0.49805c0-1.662 1.338-3 3-3h20c1.662 0 3 1.338 3 3v0.49414l-8.3867 6.5059h1.6094l6.7773-5.2578v7.2578h1v-9.2812l-0.01367 0.011719c-0.13833-2.0888-1.8613-3.7305-3.9863-3.7305zm-3 5.7422 6.7773 5.2578-6.7773 5.2578z" fill="currentColor"/>
</svg>

<svg xmlns="http://www.w3.org/2000/svg" viewBox="0 0 32 32">
    <defs>
        <style id="current-color-scheme" type="text/css">
            .ColorScheme-Text{color:#050505;opacity:.7}
        </style>
    </defs>
    <path fill="currentColor" d="M20 17v5l5.39 4.975 4.585-4.584L25 17zm2.89 1.64a1.25 1.25 0 1 1 0 2.502 1.25 1.25 0 0 1 0-2.501z" class="ColorScheme-Text"/>
    <path fill="currentColor" d="M6 5a3.987 3.987 0 0 0-3.986 3.734L2 8.723V23.28l.014-.012A3.987 3.987 0 0 0 6 27h15v-1H6c-1.662 0-3-1.338-3-3v-.496l7.58-5.88 3.604 2.794c.999.775 2.634.775 3.632 0L19 18.5v-1.248l-1.988 1.543c-.568.44-1.458.443-2.026.002L3 9.498V9c0-1.662 1.338-3 3-3h20c1.662 0 3 1.338 3 3v.494L20.614 16h1.609L29 10.743V18h1V8.72l-.013.01A3.987 3.987 0 0 0 26 5zm-3 5.742L9.777 16 3 21.258z" class="ColorScheme-Text"/>
</svg>
